!!!COM: Anonymous
!!!CDT: fl. XVI c. 1st half [?]
!!!ODT: ~1558
!!!OTL: Lament Jeronima Szafrańca
!!!TXO: Polish
!!!voices: 4
!!!pag:
!!!EFL:
!!!YEM: Creative Commons CC/BY/NC/SA 4.0
!!!ENC: Marcin Konik
!!!END: 2014-10-02
!!!EED: Marcin Konik
!!!EEV:
!!!ONB: Encoded in vim by Marcin Konik
!!!CharacterEncoding: utf-8
!!!RDF**kern: l=long note in original notation
!!!RDF**kern: i=editorial accidental
!!!RDF**kern: > = above
!!!RDF**kern < = below
!!muse2ps: z14jc180F
!!title: @{CDT}, @{OTL}, ed. @{ENC}
**kern	**kern	**kern	**kern
*	*	*	*Trd-7c-12
*part4	*part3	*part2	*part1
*staff4	*staff3	*staff2	*staff1
*clefF4	*clefF4	*clefG2	*clefG2
*k[]	*k[]	*k[]	*k[]
*M4/4	*M4/4	*M4/4	*M4/4
=1-	=1-	=1-	=1-
1E	1E	1B	1e
=2	=2	=2	=2
2AA	2A	2c	2e
2AA	2A	2c	2e
=3	=3	=3	=3
1E	1G	2B	1g
.	.	[2c	.
=4	=4	=4	=4
2F	2A	4c]	2f
.	.	4d	.
2E	2B	2e	2g
=5	=5	=5	=5
1A	1c	1e	1a
=6	=6	=6	=6
2E	2B	2e	2g
2E	2G	2e	2b
=7	=7	=7	=7
2F	2A	4c	2a
.	.	4d	.
2E	2B	2e	2g#
=8	=8	=8	=8
1AA	1c	1e	1a
=9	=9	=9	=9
1E	1B	1e	1g#
=10	=10	=10	=10
1AA	1A	1e	1cc
=11	=11	=11	=11
2E	2G	2e	2b
2F	2A	4c	2a
.	.	4d	.
=12	=12	=12	=12
1E	1B	1e	1g
=13	=13	=13	=13
2C	2c	2e	2g
2D	2A	2d	2f
=14	=14	=14	=14
1E	1G	1B	1e
=15	=15	=15	=15
2AA	2A	2c	2e
2AA	2c	2e	2a
=16	=16	=16	=16
2E	2B	2e	2g#
2F	2A	2d	[2a
=17	=17	=17	=17
1E	1B	1e	4a]
.	.	.	8g#L
.	.	.	8f#J
.	.	.	2g#
=18	=18	=18	=18
1AA	1A	1e	1a
=19	=19	=19	=19
1C	1E	1c	1g
=20	=20	=20	=20
2C	2G	2c	2e
2C	2G	2c	2e
=21	=21	=21	=21
2F	2A	4c	2f
.	.	4d	.
2E	2B	2e	2g
=22	=22	=22	=22
1A	1c	1e	1a
=23	=23	=23	=23
1E	1B	1e	1g#
=24	=24	=24	=24
2AA	2A	2e	2cc
2AA	2c	2e	[2a
=25	=25	=25	=25
2E	2B	2e	2a]
2E	2G	2c	[2g
=26	=26	=26	=26
1D	1A	1d	2g]
.	.	.	2f#
=27	=27	=27	=27
1E	1G	1B	2g
.	.	.	2g
=28	=28	=28	=28
1C	1c	1e	1g
=29	=29	=29	=29
2AA	2c	2e	2a
2AA	2c	2e	2a
=30	=30	=30	=30
2E	2B	2e	2g
2F	2A	2d	[2a
=31	=31	=31	=31
1E	1B	1e	2a]
.	.	.	2g#
=32	=32	=32	=32
1AA	1A	1e	1a
=33	=33	=33	=33
1AA	1c	1e	1a
=34	=34	=34	=34
1D	1A	1d	1f
=35	=35	=35	=35
2E	2G	2B	2g
2C	2A	2c	[2e
=36	=36	=36	=36
1D	1F	2.A	2e]
.	.	.	2d
.	.	4B	.
=37	=37	=37	=37
2.AA	[1E	2.c	[1e
4BB	.	8BL	.
.	.	8AJ	.
=38	=38	=38	=38
2.C	1E_	2.G	1e_
8BBL	.	4A	.
8AAJ	.	.	.
=39	=39	=39	=39
4GG	1E_	4B	1e_
2AA	.	2c	.
8GGL	.	8BL	.
8FFJ	.	8AJ	.
=40	=40	=40	=40
[1EE	1E_	[1B	1e_
=41	=41	=41	=41
2EE]	2E]	2B]	2e]
2r	2r	2r	2r
==	==	==	==
*-	*-	*-	*-
